X: 1661
T: Tomorrow Morning
R: hornpipe, reel
%S: s:2 b:13(6+7)
B: O'Neill's 1850 #1661
Z: Compacted via repeats and multiple endings [JC]
M: 4/4
L: 1/8
K: D
f-e \
| dAFA dfed | ecAc egfe | fafd Bge [1,3 d | c2A2 A2f-e :|[2,4 c | d2d2 d2 :: f-g | afdf a2g-f |
| gece g2f-e | fafd Bged | c2A2 A2f-e || dAFA dfed  | ecAc egfe  | fafd Bgec | d2d2 d2 :|
